X: 490
T: Bülbül Yetişir
C: Hacı Ârif Bey
O: Turkey
F: http://compmusic.upf.edu/node/140
N: segah--sarki--aksak--bulbul_yetisir--haci_arif_bey
N: makam= segah
N: form= sarki
N: usul= aksak = 9/8
M: 9/8
L: 1/16
K: C _1/4B _1/4e ^f 
Q: 1/4=108
%%MIDI tuningsystem comma53
B4 G3A BcBA G2A2 B2 | c2 B2d2 c2dc B^AB4z2  | \
w:   |   | 
A3B cdcB B2AG G4 A_7/8B | 
w:   | 
A_7/8B AGA2 c2BA AGGF G4  | z2G3ABc BAG2 A2B2 c2 | 
w:   |   | 
d2 d2cB f2ed d2B2 c2d2  | f2ed d6de dcBc de | 
w:   |   | 
=fg a2a3gg2 a2gf f2g2  | =feed e2g2 g3f f2g2 fe | 
w:   |   | 
e2 =f2ed d4 cBc3Bf3ee2 f2ed d2e2 dcc3B | 
w:   | 
ag =feed dcBc d2cB B6bc' b^aga b4 ac'b4 | 
w:   | 
^a3bb3ag2 =a2gf fed2  | e2f2 g2fa g6fg fg | 
w:   |   | 
^a2 b2c'2 b2=a2 g2gf f2e2  | aggf f2eg f4 g2fe e2 | 
w:   |   | 
=f2 edd4d2 e2dc c4  | d2cB B4 agg=f feed de | 
w:   |   | 
=f2 edd6 dedc Bcde  | =fga2 a3g g2a2 gff2 g2 | 
w:   |   | 
=fe ede2 g2g3ff2 g2fe  | e2=f2 edd4cB c3B f3e e2f2 edd2 e2dc c3B  | 
w:   |   | 
ag=fe eddc Bcd2 cBB6 bc'b^a gab4ac' b4  | 
w:   | 
^a3b b3a g2=a2 gffe d2 | e2 f2g2 fag6 fgfg  | 
w:   |   | 
^a2b2 c'2b2 =a2g2 gff2 e2 | ag gff2 egf4g2 fee2  | 
w:   |   | 
=f2ed d4 d2e2 dcc4 | d2 cBB4ag g=ffe edde  | 
w:   |   | 
=f2ed d6de dcBc de | =fg a2B6 BcB^A GAB4b2 abc'd' bc'ab gafg ef | 
w:   |   | 
de dcBc de=fe dcdc BAB4g2 abc'd' bc'ab gafg ef | 
w:   | 
de dcBc de=fe dcdc BAB4z2 |
w:   | 


